X: 4
T: Superfly (Mix with McGoldrick version)
R: reel
M: 4/4
L: 1/8
K: Bmin
|:Bf~f2 gfeg|~f3g fedf|~e3f edcd|ed (3cBA BAFA|
Bf~f2 gfeg|~f3g fedf|efdf edcd|ed (3cBA B2BA:|
|:Bcde f2Bc|defB g2Bc|defd agfa|gfed fedc|
Bcde f2Bc|de (3fed g2Bc|defd agfa|gfed ed (3cBA:|